src/main/resources/icons/TestngIcons/resources/testNG.svg

<svg xmlns="http://www.w3.org/2000/svg" width="16" height="16" viewBox="0 0 16 16">
  <g fill="none" fill-rule="evenodd">
    <path fill="#9AA7B0" fill-opacity=".8" d="M9,4 L9,14 L7,14 L7,4 L2,4 L2,2 L14,2 L14,4 L9,4 Z"/>
    <polygon fill="#F26522" points="1 12 1 6.12 2.193 6.12 4.948 9.74 4.948 6.12 6.225 6.12 6.225 12 5.124 12 2.277 8.262 2.277 12"/>
    <path fill="#D9A343" d="M12.4912,12.1008 C10.66,12.1008 9.4,10.8156 9.4,9.0768 L9.4,9.06 C9.4,7.3884 10.702,6.0192 12.4828,6.0192 C13.5412,6.0192 14.1796,6.3048 14.7928,6.8256 L13.978,7.8084 C13.5244,7.4304 13.1212,7.212 12.4408,7.212 C11.5,7.212 10.7524,8.0436 10.7524,9.0432 L10.7524,9.06 C10.7524,10.1352 11.4916,10.9248 12.5332,10.9248 C13.0036,10.9248 13.4236,10.8072 13.7512,10.572 L13.7512,9.732 L12.4492,9.732 L12.4492,8.6148 L15.0028,8.6148 L15.0028,11.1684 C14.398,11.6808 13.5664,12.1008 12.4912,12.1008 Z"/>
  </g>
</svg>

<svg xmlns="http://www.w3.org/2000/svg" width="16" height="16" viewBox="0 0 16 16"><rect id="frame" width="16" height="16" fill="none"/><g fill="none" fill-rule="evenodd"><path fill="#9AA7B0" fill-opacity=".8" d="M9 4v10H7V4H2V2h12v2H9z"/><path fill="#F26522" d="M1 12V6.12h1.193l2.755 3.62V6.12h1.277V12H5.124L2.277 8.262V12z"/><path fill="#D9A343" d="M12.491 12.1C10.66 12.1 9.4 10.817 9.4 9.078V9.06c0-1.672 1.302-3.04 3.083-3.04 1.058 0 1.697.285 2.31.806l-.815.982c-.454-.378-.857-.596-1.537-.596-.941 0-1.689.832-1.689 1.831v.017c0 1.075.74 1.865 1.781 1.865.47 0 .89-.118 1.218-.353v-.84H12.45V8.615h2.554v2.553a3.817 3.817 0 0 1-2.512.933z"/></g></svg>
